images/icons/social/twitter.svg

<svg width="29" height="26" viewBox="0 0 29 26" fill="none" xmlns="http://www.w3.org/2000/svg">
<path fill-rule="evenodd" clip-rule="evenodd" d="M26.1594 4.01105L28.0457 4.23135L27.1978 5.93069C26.7843 6.75939 26.3704 7.58809 25.9561 8.41679C25.9069 8.59231 25.8206 8.74618 25.6929 8.94652C25.6395 9.03022 25.4572 9.2965 25.4487 9.30928C25.4006 9.38146 25.365 9.43839 25.3394 9.484V12.6687C25.3394 20.818 17.4527 25.9966 10.0047 25.9966C8.4807 25.9966 7.32278 25.9236 5.99688 25.6342C3.81489 25.1581 2.19105 24.2116 1.44798 22.5573L0.682968 20.8543L2.54214 20.6833C4.22403 20.5286 5.68227 20.2082 6.80213 19.7791C3.72771 19.2847 2.00482 17.9344 2.00482 15.3985V14.0652H3.33815C3.6311 14.0652 3.89526 14.0414 4.13141 13.9978C1.82402 12.6182 0.668316 10.4051 0.668316 7.33538C0.668064 7.20455 0.668064 7.20455 0.667277 7.06465C0.658609 5.51739 0.741717 4.69064 1.16528 3.63548C1.43674 2.95923 1.82913 2.3332 2.35722 1.75958L3.36337 0.666687L4.34159 1.78464C7.56527 5.46883 10.752 7.70396 14.0056 7.97431C14.0195 4.57475 16.5887 2.00205 20.0058 2.00205C21.5988 2.00205 23.0438 2.60671 24.1793 3.69699C24.8008 3.8247 25.4609 3.92948 26.1594 4.01105ZM23.2115 6.21604L22.8028 6.12349L22.5205 5.81372C21.838 5.06475 20.9813 4.66872 20.0058 4.66872C18.0552 4.66872 16.6722 6.05856 16.6722 8.00205C16.6722 8.31967 16.664 8.51925 16.6244 8.78155C16.4665 9.82824 15.8794 10.6687 14.6721 10.6687C10.6748 10.6687 7.06849 8.52724 3.55187 4.86973C3.37058 5.42083 3.32794 5.98732 3.3339 7.04971C3.3347 7.1918 3.3347 7.1918 3.33498 7.33538C3.33498 10.0661 4.44126 11.5597 7.06064 12.3923L7.99009 12.6877V13.663C7.99009 14.8456 6.86964 15.9589 5.23026 16.4575C5.98177 17.0277 7.51868 17.3354 10.0052 17.3354H11.3385V18.6687C11.3385 20.579 9.14351 22.0748 5.82768 22.8558C6.90906 23.1871 8.34889 23.3299 10.0047 23.3299C16.1573 23.3299 22.6727 19.0518 22.6727 12.6687V9.33538C22.6727 8.94367 22.7862 8.60367 22.9749 8.25015C23.0486 8.11192 23.1298 7.98015 23.2301 7.82985C23.2489 7.80156 23.3189 7.69904 23.3745 7.61708L23.4802 7.40574C23.6514 7.06329 23.8226 6.72083 23.9937 6.37838C23.7278 6.32801 23.4671 6.2739 23.2115 6.21604Z" fill="white"/>
</svg>

<svg width="29" height="26" fill="none" xmlns="http://www.w3.org/2000/svg"><path fill-rule="evenodd" clip-rule="evenodd" d="M26.16 4.011l1.886.22-.848 1.7-1.242 2.486c-.05.175-.135.33-.263.53-.053.083-.236.35-.244.362-.048.072-.084.13-.11.175v3.185c0 8.149-7.886 13.328-15.334 13.328-1.524 0-2.682-.073-4.008-.363-2.182-.476-3.806-1.422-4.549-3.077l-.765-1.703 1.86-.17c1.681-.155 3.14-.476 4.26-.905-3.075-.494-4.798-1.845-4.798-4.38v-1.334h1.333c.293 0 .557-.024.793-.067C1.824 12.618.668 10.405.668 7.335v-.27c-.01-1.548.074-2.374.497-3.43A6.11 6.11 0 012.357 1.76L3.363.667l.979 1.118c3.223 3.684 6.41 5.919 9.664 6.19.014-3.4 2.583-5.973 6-5.973 1.593 0 3.038.605 4.173 1.695a23.36 23.36 0 001.98.314zm-2.948 2.205l-.41-.093-.282-.31c-.682-.748-1.539-1.144-2.514-1.144-1.95 0-3.334 1.39-3.334 3.333 0 .318-.008.517-.048.78-.157 1.046-.745 1.887-1.952 1.887-3.997 0-7.604-2.142-11.12-5.8-.181.552-.224 1.118-.218 2.18l.001.286c0 2.731 1.106 4.225 3.726 5.057l.93.296v.975c0 1.183-1.121 2.296-2.76 2.794.75.57 2.288.878 4.774.878h1.333v1.334c0 1.91-2.194 3.406-5.51 4.187 1.081.331 2.52.474 4.177.474 6.152 0 12.668-4.278 12.668-10.661V9.335c0-.391.113-.731.302-1.085.074-.138.155-.27.255-.42l.145-.213.105-.211.514-1.028c-.266-.05-.527-.104-.782-.162z" fill="#fff"/></svg>
